X:31
T:Flying Home to Shelley
M:C|
L:1/8
C:©Paul Gitlitz 1988
R:Reel
B:Gibltz Fancy, 169 Brand New Old Time Fiddle Tunes Vol. 3, Canadian Fiddle Tunes Vol 1
K:G
"G6"G2dG cGBG|"Am7"G2cG BGAG|"Bm7"G2AG BGAG|"C6"DEGD EDB,C|!
"G6"G2dG cGBG|"Am7"G2cG BGAG|"Bm7"G2AG "Am"BGAG|1"D9"DEFD "G"G2z2:|2"D9"DEFD "G"GABc|!
|:"G6"d3B AGAB|"Am7"c3B AGE2|"C6"e3d "Bm7"BAG2|"Am7"ABdA "D7"BAGB|!
"Em7"d2dB AGAB|"Am7"cGBG AGE2|"C6"e3d "Am7"BAG2|1"D7"ABAF "G6"GABc:|2"D7"ABAF "G6"G4|]

